app/assets/images/heroicons/mini/chat-bubble-bottom-center.svg

<svg width="20" height="20" viewBox="0 0 20 20" fill="none" xmlns="http://www.w3.org/2000/svg">
<path fill-rule="evenodd" clip-rule="evenodd" d="M3.42976 2.52374C5.56943 2.17905 7.76407 2 10 2C12.2359 2 14.4306 2.17905 16.5702 2.52374C18.0066 2.75513 19 4.01325 19 5.42588V10.5741C19 11.9867 18.0066 13.2449 16.5702 13.4763C15.4024 13.6644 14.2181 13.8032 13.0196 13.8905C12.7399 13.9108 12.4988 14.0703 12.3775 14.3035L10.6654 17.596C10.5363 17.8443 10.2798 18 10 18C9.7202 18 9.46367 17.8443 9.33459 17.596L7.62247 14.3035C7.5012 14.0703 7.2601 13.9108 6.9804 13.8905C5.78193 13.8032 4.59764 13.6644 3.42976 13.4763C1.99338 13.2449 1 11.9867 1 10.5741V5.42588C1 4.01325 1.99339 2.75513 3.42976 2.52374Z" fill="#0F172A"/>
</svg>

<svg xmlns="http://www.w3.org/2000/svg" viewBox="0 0 20 20" fill="currentColor" aria-hidden="true" data-slot="icon">
  <path fill-rule="evenodd" d="M3.43 2.524A41.29 41.29 0 0 1 10 2c2.236 0 4.43.18 6.57.524 1.437.231 2.43 1.49 2.43 2.902v5.148c0 1.413-.993 2.67-2.43 2.902a41.102 41.102 0 0 1-3.55.414c-.28.02-.521.18-.643.413l-1.712 3.293a.75.75 0 0 1-1.33 0l-1.713-3.293a.783.783 0 0 0-.642-.413 41.108 41.108 0 0 1-3.55-.414C1.993 13.245 1 11.986 1 10.574V5.426c0-1.413.993-2.67 2.43-2.902Z" clip-rule="evenodd"/>
</svg>
